X:41
T:Minuett. TBe.041
M:3/4
L:1/4
Q:1/4=140
S:Thomas Bennet MS,1718, VWML
R:.minuet
O:England
H:1718
Z:vmp.C. Graebe..
K:E minor
B | e/f/ e^d | e2 f | g/f/e/f/g/e/ | fBe/^d/ |!
eEf/e/ | fFe/^d/ | e B/A/G/F/ | “E3 in MS”E2 || !
F | G/A/ GD | G2 A | B/F/ G/E/ B/e/ | ^d2 B |!
ef2 | g/d/B/G/ B/d/ | e/B/G/E/ G/B/ | “E3 in MS”e2 |]

